packages/core/src/svgs/tokens/branded/SDEX.svg

<svg width="24" height="24" viewBox="0 0 24 24" fill="none" xmlns="http://www.w3.org/2000/svg">
<path fill-rule="evenodd" clip-rule="evenodd" d="M20.3336 8.0998C20.3205 7.66837 20.1959 7.24769 19.972 6.87869C19.748 6.50969 19.4325 6.20495 19.0558 5.99414L17.1445 4.79962L13.3388 2.41059C12.943 2.1385 12.4729 1.99515 11.9926 2.00013C11.5124 2.00509 11.0454 2.15814 10.6553 2.43838C9.62557 3.08864 8.59212 3.73313 7.55512 4.37182L6.95509 4.74406C6.28283 5.1663 5.60501 5.58299 4.93831 6.0108C4.27716 6.43305 3.67156 7.26087 3.66602 8.06648V15.778C3.67481 16.2274 3.79771 16.6671 4.02319 17.0559C4.24868 17.4446 4.56931 17.7696 4.95497 18.0004L7.91069 19.856L10.6497 21.5672C11.0595 21.8545 11.5493 22.0058 12.0497 21.9998C12.55 21.9939 13.0359 21.8309 13.4388 21.5339C14.4221 20.8949 15.4167 20.2783 16.4112 19.6671C17.3168 19.1004 18.2279 18.5393 19.128 17.9615C19.4878 17.7313 19.7859 17.4165 19.996 17.0446C20.2061 16.6727 20.322 16.255 20.3336 15.8281V8.0998ZM15.3222 15.3335C14.4159 15.9581 13.4895 16.553 12.5443 17.1169C12.3665 17.2282 12.1832 17.2781 11.9999 17.2781C11.8054 17.2781 11.611 17.217 11.4165 17.1003C10.8164 16.7336 10.3719 16.4669 9.91635 16.2003L8.16627 15.1446C7.5329 14.7557 7.54401 14.1001 7.55512 13.4557V13.2667C7.55512 13.1279 7.50512 13.0112 7.37734 12.9334C7.11065 12.7723 6.84397 12.5834 6.57174 12.3945C6.28283 12.1945 5.99392 11.9889 5.70502 11.8167C5.47723 11.6777 5.33833 11.75 5.33833 12.0222V12.6001C5.33277 13.389 5.32722 14.1779 5.355 14.9669C5.37722 15.678 5.72724 16.2447 6.35505 16.6336L10.9387 19.4504C11.6609 19.8949 12.3721 19.8782 13.0888 19.4338L15.1778 18.156C16.0111 17.6448 16.8445 17.1392 17.6668 16.6225C17.9541 16.4457 18.1948 16.2026 18.3688 15.9135C18.5428 15.6244 18.6451 15.298 18.6668 14.9613C18.7002 14.6113 18.3835 14.439 18.0946 14.2779L17.9113 14.1779C17.4945 13.9279 16.8667 13.5335 16.1223 13.0668C15.0833 12.4167 13.8166 11.6278 12.6054 10.8889C12.6054 10.8889 15.2945 15.3113 15.3278 15.3335H15.3222ZM11.4554 6.88307C10.5102 7.44711 9.5837 8.04191 8.67741 8.6665C8.70519 8.68873 11.3942 13.1111 11.3942 13.1111C10.183 12.3722 8.91631 11.5834 7.87736 10.9332C7.13287 10.4665 6.50507 10.0722 6.08837 9.82212L5.90503 9.72217C5.61612 9.56103 5.29388 9.38877 5.33833 9.03875C5.3587 8.70164 5.45965 8.37434 5.63269 8.08431C5.80574 7.79429 6.04584 7.55001 6.33283 7.37198L8.82186 5.84412L10.9109 4.56628C11.2253 4.34593 11.5993 4.22634 11.9833 4.22336C12.3673 4.22039 12.7431 4.33416 13.0609 4.54961L16.0889 6.41083L17.6445 7.36087C17.9422 7.52874 18.1909 7.77124 18.3662 8.06448C18.5416 8.35773 18.6375 8.6916 18.6447 9.03319C18.6724 9.82212 18.6668 10.6111 18.6613 11.3945V11.9779C18.6613 12.2501 18.5224 12.3223 18.2947 12.1833C18.0057 12.0112 17.7169 11.8056 17.4279 11.6055C17.1557 11.4167 16.889 11.2278 16.6223 11.0666C16.4945 10.9889 16.4445 10.8722 16.4445 10.7333V10.5443C16.4556 9.8999 16.4668 9.24432 15.8334 8.85541L14.0833 7.79979C13.6277 7.53311 13.1832 7.26642 12.5832 6.89974C12.3942 6.78307 12.1943 6.72194 11.9999 6.72194C11.8164 6.72194 11.6331 6.77751 11.4554 6.88307Z" fill="#00FFB2"/>
</svg>

<svg xmlns="http://www.w3.org/2000/svg" width="24" height="24" fill="none" viewBox="0 0 24 24">
    <path fill="#00FFB2" fill-rule="evenodd" d="M20.334 8.1a2.5 2.5 0 0 0-1.278-2.106L17.144 4.8 13.34 2.41a2.33 2.33 0 0 0-2.684.028 326 326 0 0 1-3.1 1.934l-.6.372c-.672.422-1.35.839-2.017 1.267-.66.422-1.266 1.25-1.272 2.055v7.712A2.65 2.65 0 0 0 4.955 18l2.956 1.856 2.739 1.711a2.39 2.39 0 0 0 2.789-.033c.983-.64 1.978-1.256 2.972-1.867.906-.567 1.817-1.128 2.717-1.706a2.62 2.62 0 0 0 1.206-2.133zm-5.012 7.234a50 50 0 0 1-2.778 1.783 1 1 0 0 1-.544.161 1.13 1.13 0 0 1-.584-.178 94 94 0 0 0-1.5-.9l-1.75-1.055c-.633-.39-.622-1.045-.61-1.69v-.188a.36.36 0 0 0-.179-.334c-.266-.16-.533-.35-.805-.538-.29-.2-.578-.406-.867-.578-.228-.14-.367-.067-.367.205v.578c-.005.789-.01 1.578.017 2.367.022.711.372 1.278 1 1.667l4.584 2.816c.722.445 1.433.428 2.15-.016l2.089-1.278c.833-.511 1.666-1.017 2.489-1.533a2.11 2.11 0 0 0 1-1.662c.033-.35-.284-.522-.572-.683l-.184-.1c-.417-.25-1.044-.645-1.789-1.111a376 376 0 0 0-3.517-2.178s2.69 4.422 2.723 4.445zm-3.867-8.45a51 51 0 0 0-2.778 1.782c.028.023 2.717 4.445 2.717 4.445a373 373 0 0 1-3.517-2.178c-.744-.466-1.372-.86-1.789-1.11l-.183-.1c-.289-.162-.611-.334-.567-.684a2.11 2.11 0 0 1 .995-1.667l2.489-1.528 2.089-1.278a1.89 1.89 0 0 1 2.15-.016l3.028 1.86 1.556.95a1.97 1.97 0 0 1 1 1.673c.027.79.022 1.578.016 2.362v.583c0 .272-.139.344-.366.205-.29-.172-.578-.377-.867-.578-.272-.188-.539-.377-.806-.538a.36.36 0 0 1-.177-.334v-.189c.01-.644.022-1.3-.612-1.689L14.083 7.8a89 89 0 0 1-1.5-.9A1.1 1.1 0 0 0 12 6.722q-.277.002-.545.161" clip-rule="evenodd"/>
</svg>
